X: 36214
T: Sculley Casey's
R: jig
M: 6/8
K: Gminor
BAG AGF|DGG G2 A|~B3 ~c3|dcd fdc|
BAG AGF|DGG G2 A|BGd cA^F|AG^FG2A:|
~B3 ~c3|dcd fdc|dgg gfg|a{b}ag fdc|
~B3 ~c3|dcd fdc|BAG Adc|AGF G2 A|
~B3 ~c3|dcd fdc|dgg gfg|a{b}ag fdB/c/|
(dga bag|^fdg ^fdc|AGA cA^F|AGG G2 A|

